bernoullicharts/1_-_log_1_x_alt_series__bound.svg

<?xml version="1.0" encoding="utf-8" standalone="no"?>
<!DOCTYPE svg PUBLIC "-//W3C//DTD SVG 1.1//EN"
  "http://www.w3.org/Graphics/SVG/1.1/DTD/svg11.dtd">
<!-- Created with matplotlib (https://matplotlib.org/) -->
<svg height="345.6pt" version="1.1" viewBox="0 0 460.8 345.6" width="460.8pt" xmlns="http://www.w3.org/2000/svg" xmlns:xlink="http://www.w3.org/1999/xlink">
 <defs>
  <style type="text/css">
*{stroke-linecap:butt;stroke-linejoin:round;}
  </style>
 </defs>
 <g id="figure_1">
  <g id="patch_1">
   <path d="M 0 345.6 
L 460.8 345.6 
L 460.8 0 
L 0 0 
z
" style="fill:#ffffff;"/>
  </g>
  <g id="axes_1">
   <g id="patch_2">
    <path d="M 57.6 307.584 
L 414.72 307.584 
L 414.72 41.472 
L 57.6 41.472 
z
" style="fill:#ffffff;"/>
   </g>
   <g id="matplotlib.axis_1">
    <g id="xtick_1">
     <g id="line2d_1">
      <defs>
       <path d="M 0 0 
L 0 3.5 
" id="mfb2f4ec500" style="stroke:#000000;stroke-width:0.8;"/>
      </defs>
      <g>
       <use style="stroke:#000000;stroke-width:0.8;" x="73.800255" xlink:href="#mfb2f4ec500" y="307.584"/>
      </g>
     </g>
     <g id="text_1">
      <text style="font-family:DejaVu Sans;font-size:10px;font-style:normal;font-weight:normal;text-anchor:middle;" transform="rotate(-0, 73.800255, 322.182437)" x="73.800255" y="322.182437">0.0</text>
     </g>
    </g>
    <g id="xtick_2">
     <g id="line2d_2">
      <g>
       <use style="stroke:#000000;stroke-width:0.8;" x="138.744153" xlink:href="#mfb2f4ec500" y="307.584"/>
      </g>
     </g>
     <g id="text_2">
      <text style="font-family:DejaVu Sans;font-size:10px;font-style:normal;font-weight:normal;text-anchor:middle;" transform="rotate(-0, 138.744153, 322.182437)" x="138.744153" y="322.182437">0.2</text>
     </g>
    </g>
    <g id="xtick_3">
     <g id="line2d_3">
      <g>
       <use style="stroke:#000000;stroke-width:0.8;" x="203.688051" xlink:href="#mfb2f4ec500" y="307.584"/>
      </g>
     </g>
     <g id="text_3">
      <text style="font-family:DejaVu Sans;font-size:10px;font-style:normal;font-weight:normal;text-anchor:middle;" transform="rotate(-0, 203.688051, 322.182437)" x="203.688051" y="322.182437">0.4</text>
     </g>
    </g>
    <g id="xtick_4">
     <g id="line2d_4">
      <g>
       <use style="stroke:#000000;stroke-width:0.8;" x="268.631949" xlink:href="#mfb2f4ec500" y="307.584"/>
      </g>
     </g>
     <g id="text_4">
      <text style="font-family:DejaVu Sans;font-size:10px;font-style:normal;font-weight:normal;text-anchor:middle;" transform="rotate(-0, 268.631949, 322.182437)" x="268.631949" y="322.182437">0.6</text>
     </g>
    </g>
    <g id="xtick_5">
     <g id="line2d_5">
      <g>
       <use style="stroke:#000000;stroke-width:0.8;" x="333.575847" xlink:href="#mfb2f4ec500" y="307.584"/>
      </g>
     </g>
     <g id="text_5">
      <text style="font-family:DejaVu Sans;font-size:10px;font-style:normal;font-weight:normal;text-anchor:middle;" transform="rotate(-0, 333.575847, 322.182437)" x="333.575847" y="322.182437">0.8</text>
     </g>
    </g>
    <g id="xtick_6">
     <g id="line2d_6">
      <g>
       <use style="stroke:#000000;stroke-width:0.8;" x="398.519745" xlink:href="#mfb2f4ec500" y="307.584"/>
      </g>
     </g>
     <g id="text_6">
      <text style="font-family:DejaVu Sans;font-size:10px;font-style:normal;font-weight:normal;text-anchor:middle;" transform="rotate(-0, 398.519745, 322.182437)" x="398.519745" y="322.182437">1.0</text>
     </g>
    </g>
    <g id="text_7">
     <text style="font-family:DejaVu Sans;font-size:10px;font-style:normal;font-weight:normal;text-anchor:middle;" transform="rotate(-0, 236.16, 335.860562)" x="236.16" y="335.860562">Input Coin's Heads Probability (λ)</text>
    </g>
   </g>
   <g id="matplotlib.axis_2">
    <g id="ytick_1">
     <g id="line2d_7">
      <defs>
       <path d="M 0 0 
L -3.5 0 
" id="mda251be3e6" style="stroke:#000000;stroke-width:0.8;"/>
      </defs>
      <g>
       <use style="stroke:#000000;stroke-width:0.8;" x="57.6" xlink:href="#mda251be3e6" y="295.491213"/>
      </g>
     </g>
     <g id="text_8">
      <text style="font-family:DejaVu Sans;font-size:10px;font-style:normal;font-weight:normal;text-anchor:end;" transform="rotate(-0, 50.6, 299.290432)" x="50.6" y="299.290432">0</text>
     </g>
    </g>
    <g id="ytick_2">
     <g id="line2d_8">
      <g>
       <use style="stroke:#000000;stroke-width:0.8;" x="57.6" xlink:href="#mda251be3e6" y="240.8193"/>
      </g>
     </g>
     <g id="text_9">
      <text style="font-family:DejaVu Sans;font-size:10px;font-style:normal;font-weight:normal;text-anchor:end;" transform="rotate(-0, 50.6, 244.618519)" x="50.6" y="244.618519">2</text>
     </g>
    </g>
    <g id="ytick_3">
     <g id="line2d_9">
      <g>
       <use style="stroke:#000000;stroke-width:0.8;" x="57.6" xlink:href="#mda251be3e6" y="186.147388"/>
      </g>
     </g>
     <g id="text_10">
      <text style="font-family:DejaVu Sans;font-size:10px;font-style:normal;font-weight:normal;text-anchor:end;" transform="rotate(-0, 50.6, 189.946607)" x="50.6" y="189.946607">4</text>
     </g>
    </g>
    <g id="ytick_4">
     <g id="line2d_10">
      <g>
       <use style="stroke:#000000;stroke-width:0.8;" x="57.6" xlink:href="#mda251be3e6" y="131.475475"/>
      </g>
     </g>
     <g id="text_11">
      <text style="font-family:DejaVu Sans;font-size:10px;font-style:normal;font-weight:normal;text-anchor:end;" transform="rotate(-0, 50.6, 135.274694)" x="50.6" y="135.274694">6</text>
     </g>
    </g>
    <g id="ytick_5">
     <g id="line2d_11">
      <g>
       <use style="stroke:#000000;stroke-width:0.8;" x="57.6" xlink:href="#mda251be3e6" y="76.803563"/>
      </g>
     </g>
     <g id="text_12">
      <text style="font-family:DejaVu Sans;font-size:10px;font-style:normal;font-weight:normal;text-anchor:end;" transform="rotate(-0, 50.6, 80.602782)" x="50.6" y="80.602782">8</text>
     </g>
    </g>
    <g id="text_13">
     <text style="font-family:DejaVu Sans;font-size:10px;font-style:normal;font-weight:normal;text-anchor:middle;" transform="rotate(-90, 38.157812, 174.528)" x="38.157812" y="174.528">Coin Flips Needed</text>
    </g>
   </g>
   <g id="line2d_12">
    <path clip-path="url(#pea8350bbbd)" d="M 73.832727 268.159356 
L 77.112066 268.569476 
L 80.391405 268.971981 
L 83.670744 269.367142 
L 86.950083 269.75522 
L 90.229421 270.136465 
L 93.50876 270.511117 
L 96.788099 270.879409 
L 100.067438 271.241562 
L 103.346777 271.597791 
L 106.626116 271.948304 
L 109.905455 272.293298 
L 113.184793 272.632966 
L 116.464132 272.967493 
L 119.743471 273.29706 
L 123.02281 273.621838 
L 126.302149 273.941996 
L 129.581488 274.257695 
L 132.860826 274.569091 
L 136.140165 274.876338 
L 139.419504 275.179583 
L 142.698843 275.478967 
L 145.978182 275.77463 
L 149.257521 276.066707 
L 152.53686 276.355328 
L 155.816198 276.640621 
L 159.095537 276.92271 
L 162.374876 277.201716 
L 165.654215 277.477755 
L 168.933554 277.750944 
L 172.212893 278.021393 
L 175.492231 278.289214 
L 178.77157 278.554512 
L 182.050909 278.817393 
L 185.330248 279.077958 
L 188.609587 279.33631 
L 191.888926 279.592546 
L 195.168264 279.846764 
L 198.447603 280.099058 
L 201.726942 280.349522 
L 205.006281 280.59825 
L 208.28562 280.845331 
L 211.564959 281.090856 
L 214.844298 281.334914 
L 218.123636 281.577591 
L 221.402975 281.818975 
L 224.682314 282.059152 
L 227.961653 282.298207 
L 231.240992 282.536225 
L 234.520331 282.77329 
L 237.799669 283.009486 
L 241.079008 283.244897 
L 244.358347 283.479605 
L 247.637686 283.713694 
L 250.917025 283.947248 
L 254.196364 284.180349 
L 257.475702 284.413081 
L 260.755041 284.645528 
L 264.03438 284.877774 
L 267.313719 285.109903 
L 270.593058 285.342002 
L 273.872397 285.574156 
L 277.151736 285.806452 
L 280.431074 286.038978 
L 283.710413 286.271823 
L 286.989752 286.505077 
L 290.269091 286.738832 
L 293.54843 286.97318 
L 296.827769 287.208216 
L 300.107107 287.444037 
L 303.386446 287.68074 
L 306.665785 287.918426 
L 309.945124 288.157198 
L 313.224463 288.39716 
L 316.503802 288.63842 
L 319.78314 288.881088 
L 323.062479 289.125277 
L 326.341818 289.371103 
L 329.621157 289.618687 
L 332.900496 289.868152 
L 336.179835 290.119625 
L 339.459174 290.373238 
L 342.738512 290.629127 
L 346.017851 290.887432 
L 349.29719 291.148298 
L 352.576529 291.411878 
L 355.855868 291.678328 
L 359.135207 291.947811 
L 362.414545 292.220497 
L 365.693884 292.496562 
L 368.973223 292.77619 
L 372.252562 293.059573 
L 375.531901 293.346913 
L 378.81124 293.638418 
L 382.090579 293.934309 
L 385.369917 294.234815 
L 388.649256 294.540177 
L 391.928595 294.850649 
L 395.207934 295.166497 
L 398.487273 295.488 
" style="fill:none;stroke:#1f77b4;stroke-linecap:square;stroke-width:1.5;"/>
   </g>
   <g id="line2d_13">
    <path clip-path="url(#pea8350bbbd)" d="M 73.832727 268.155257 
L 77.112066 267.444522 
L 80.391405 267.663209 
L 83.670744 267.608537 
L 86.950083 267.061818 
L 90.229421 266.788459 
L 93.50876 266.460427 
L 96.788099 266.132396 
L 100.067438 265.804364 
L 103.346777 265.531005 
L 106.626116 265.038958 
L 109.905455 264.929614 
L 113.184793 264.492238 
L 116.464132 263.180112 
L 119.743471 264.164207 
L 123.02281 264.218879 
L 126.302149 262.360034 
L 129.581488 262.906753 
L 132.860826 261.703971 
L 136.140165 263.016097 
L 139.419504 262.032002 
L 142.698843 262.469378 
L 145.978182 258.587672 
L 149.257521 261.703971 
L 152.53686 260.446517 
L 155.816198 261.703971 
L 159.095537 260.774548 
L 162.374876 260.555861 
L 165.654215 257.439562 
L 168.933554 258.478328 
L 172.212893 258.204968 
L 175.492231 257.931609 
L 178.77157 257.38489 
L 182.050909 257.166202 
L 185.330248 256.23678 
L 188.609587 255.96342 
L 191.888926 254.924654 
L 195.168264 255.799404 
L 198.447603 255.033998 
L 201.726942 252.573761 
L 205.006281 252.628433 
L 208.28562 252.464418 
L 211.564959 252.683105 
L 214.844298 251.808355 
L 218.123636 252.464418 
L 221.402975 252.027042 
L 224.682314 251.09762 
L 227.961653 251.261636 
L 231.240992 250.386885 
L 234.520331 246.997226 
L 237.799669 249.074759 
L 241.079008 249.238775 
L 244.358347 247.37993 
L 247.637686 249.348119 
L 250.917025 245.739772 
L 254.196364 247.215914 
L 257.475702 246.778539 
L 260.755041 245.083709 
L 264.03438 245.083709 
L 267.313719 241.639379 
L 270.593058 243.498224 
L 273.872397 242.022082 
L 277.151736 240.983316 
L 280.431074 240.873972 
L 283.710413 239.452502 
L 286.989752 238.851111 
L 290.269091 238.140377 
L 293.54843 237.812345 
L 296.827769 238.085705 
L 300.107107 235.078749 
L 303.386446 234.039983 
L 306.665785 234.094655 
L 309.945124 232.946545 
L 313.224463 231.361059 
L 316.503802 234.368015 
L 319.78314 230.540981 
L 323.062479 228.79148 
L 326.341818 224.691086 
L 329.621157 225.94854 
L 332.900496 223.925679 
L 336.179835 222.285522 
L 339.459174 223.706992 
L 342.738512 218.841191 
L 346.017851 215.178173 
L 349.29719 217.693081 
L 352.576529 218.185129 
L 355.855868 214.850142 
L 359.135207 212.116546 
L 362.414545 208.726888 
L 365.693884 204.025103 
L 368.973223 200.690117 
L 372.252562 204.681166 
L 375.531901 197.027098 
L 378.81124 184.78059 
L 382.090579 182.703057 
L 385.369917 191.122532 
L 388.649256 167.558938 
L 391.928595 159.412823 
L 395.207934 158.100697 
L 398.487273 53.568 
" style="fill:none;stroke:#ff7f0e;stroke-linecap:square;stroke-width:1.5;"/>
   </g>
   <g id="patch_3">
    <path d="M 57.6 307.584 
L 57.6 41.472 
" style="fill:none;stroke:#000000;stroke-linecap:square;stroke-linejoin:miter;stroke-width:0.8;"/>
   </g>
   <g id="patch_4">
    <path d="M 414.72 307.584 
L 414.72 41.472 
" style="fill:none;stroke:#000000;stroke-linecap:square;stroke-linejoin:miter;stroke-width:0.8;"/>
   </g>
   <g id="patch_5">
    <path d="M 57.6 307.584 
L 414.72 307.584 
" style="fill:none;stroke:#000000;stroke-linecap:square;stroke-linejoin:miter;stroke-width:0.8;"/>
   </g>
   <g id="patch_6">
    <path d="M 57.6 41.472 
L 414.72 41.472 
" style="fill:none;stroke:#000000;stroke-linecap:square;stroke-linejoin:miter;stroke-width:0.8;"/>
   </g>
   <g id="text_14">
    <text style="font-family:DejaVu Sans;font-size:12px;font-style:normal;font-weight:normal;text-anchor:middle;" transform="rotate(-0, 236.16, 35.472)" x="236.16" y="35.472">Coin Flips for 1 - log(1+x)</text>
   </g>
   <g id="legend_1">
    <g id="patch_7">
     <path d="M 64.6 78.82825 
L 313.43125 78.82825 
Q 315.43125 78.82825 315.43125 76.82825 
L 315.43125 48.472 
Q 315.43125 46.472 313.43125 46.472 
L 64.6 46.472 
Q 62.6 46.472 62.6 48.472 
L 62.6 76.82825 
Q 62.6 78.82825 64.6 78.82825 
z
" style="fill:#ffffff;opacity:0.8;stroke:#cccccc;stroke-linejoin:miter;"/>
    </g>
    <g id="line2d_14">
     <path d="M 66.6 54.570437 
L 86.6 54.570437 
" style="fill:none;stroke:#1f77b4;stroke-linecap:square;stroke-width:1.5;"/>
    </g>
    <g id="line2d_15"/>
    <g id="text_15">
     <text style="font-family:DejaVu Sans;font-size:10px;font-style:normal;font-weight:normal;text-anchor:start;" transform="rotate(-0, 94.6, 58.070437)" x="94.6" y="58.070437">Coin Flip Lower Bound (Mendo)</text>
    </g>
    <g id="line2d_16">
     <path d="M 66.6 69.248562 
L 86.6 69.248562 
" style="fill:none;stroke:#ff7f0e;stroke-linecap:square;stroke-width:1.5;"/>
    </g>
    <g id="line2d_17"/>
    <g id="text_16">
     <text style="font-family:DejaVu Sans;font-size:10px;font-style:normal;font-weight:normal;text-anchor:start;" transform="rotate(-0, 94.6, 72.748562)" x="94.6" y="72.748562">Avg. Coins Flipped 1 - log(1+x) (Alt. Series)</text>
    </g>
   </g>
  </g>
 </g>
 <defs>
  <clipPath id="pea8350bbbd">
   <rect height="266.112" width="357.12" x="57.6" y="41.472"/>
  </clipPath>
 </defs>
</svg>

<svg height="460.8" viewBox="0 0 460.8 345.6" width="614.4" xmlns="http://www.w3.org/2000/svg" xmlns:xlink="http://www.w3.org/1999/xlink"><defs><style>*{stroke-linecap:butt;stroke-linejoin:round}</style></defs><g id="figure_1"><path d="M0 345.6h460.8V0H0z" fill="#fff" id="patch_1"/><g id="axes_1"><path d="M57.6 307.584h357.12V41.472H57.6z" fill="#fff" id="patch_2"/><g id="matplotlib.axis_1"><g id="xtick_1"><g id="line2d_1"><defs><path d="M0 0v3.5" id="mfb2f4ec500" stroke="#000" stroke-width=".8"/></defs><use x="73.8" xlink:href="#mfb2f4ec500" y="307.584" stroke="#000" stroke-width=".8"/></g><text x="73.8" y="322.182" font-family="DejaVu Sans" font-size="10" font-weight="400" text-anchor="middle" id="text_1">0.0</text></g><g id="xtick_2"><use x="138.744" xlink:href="#mfb2f4ec500" y="307.584" stroke="#000" stroke-width=".8" id="line2d_2"/><text x="138.744" y="322.182" font-family="DejaVu Sans" font-size="10" font-weight="400" text-anchor="middle" id="text_2">0.2</text></g><g id="xtick_3"><use x="203.688" xlink:href="#mfb2f4ec500" y="307.584" stroke="#000" stroke-width=".8" id="line2d_3"/><text x="203.688" y="322.182" font-family="DejaVu Sans" font-size="10" font-weight="400" text-anchor="middle" id="text_3">0.4</text></g><g id="xtick_4"><use x="268.632" xlink:href="#mfb2f4ec500" y="307.584" stroke="#000" stroke-width=".8" id="line2d_4"/><text x="268.632" y="322.182" font-family="DejaVu Sans" font-size="10" font-weight="400" text-anchor="middle" id="text_4">0.6</text></g><g id="xtick_5"><use x="333.576" xlink:href="#mfb2f4ec500" y="307.584" stroke="#000" stroke-width=".8" id="line2d_5"/><text x="333.576" y="322.182" font-family="DejaVu Sans" font-size="10" font-weight="400" text-anchor="middle" id="text_5">0.8</text></g><g id="xtick_6"><use x="398.52" xlink:href="#mfb2f4ec500" y="307.584" stroke="#000" stroke-width=".8" id="line2d_6"/><text x="398.52" y="322.182" font-family="DejaVu Sans" font-size="10" font-weight="400" text-anchor="middle" id="text_6">1.0</text></g><text x="236.16" y="335.861" font-family="DejaVu Sans" font-size="10" font-weight="400" text-anchor="middle" id="text_7">Input Coin&apos;s Heads Probability (λ)</text></g><g id="matplotlib.axis_2"><g id="ytick_1"><g id="line2d_7"><defs><path d="M0 0h-3.5" id="mda251be3e6" stroke="#000" stroke-width=".8"/></defs><use x="57.6" xlink:href="#mda251be3e6" y="295.491" stroke="#000" stroke-width=".8"/></g><text x="50.6" y="299.29" font-family="DejaVu Sans" font-size="10" font-weight="400" text-anchor="end" id="text_8">0</text></g><g id="ytick_2"><use x="57.6" xlink:href="#mda251be3e6" y="240.819" stroke="#000" stroke-width=".8" id="line2d_8"/><text x="50.6" y="244.619" font-family="DejaVu Sans" font-size="10" font-weight="400" text-anchor="end" id="text_9">2</text></g><g id="ytick_3"><use x="57.6" xlink:href="#mda251be3e6" y="186.147" stroke="#000" stroke-width=".8" id="line2d_9"/><text x="50.6" y="189.947" font-family="DejaVu Sans" font-size="10" font-weight="400" text-anchor="end" id="text_10">4</text></g><g id="ytick_4"><use x="57.6" xlink:href="#mda251be3e6" y="131.475" stroke="#000" stroke-width=".8" id="line2d_10"/><text x="50.6" y="135.275" font-family="DejaVu Sans" font-size="10" font-weight="400" text-anchor="end" id="text_11">6</text></g><g id="ytick_5"><use x="57.6" xlink:href="#mda251be3e6" y="76.804" stroke="#000" stroke-width=".8" id="line2d_11"/><text x="50.6" y="80.603" font-family="DejaVu Sans" font-size="10" font-weight="400" text-anchor="end" id="text_12">8</text></g><text transform="rotate(-90 38.158 174.528)" x="38.158" y="174.528" font-family="DejaVu Sans" font-size="10" font-weight="400" text-anchor="middle" id="text_13">Coin Flips Needed</text></g><path clip-path="url(#pea8350bbbd)" d="M73.833 268.16l3.28.41 3.278.402 3.28.395 3.28.388 3.278.381 3.28.375 3.28.368 3.278.363 3.28.356 3.28.35 3.278.345 3.28.34 3.28.334 3.278.33 3.28.325 3.28.32 3.278.316 3.28.311 3.28.307 3.279.304 3.279.299 3.28.296 3.279.292 3.279.288 3.28.286 3.279.282 3.279.279 3.28.276 3.279.273 3.279.27 3.28.268 3.279.266 3.279.262 3.28.261 3.279.258 3.279.257 3.28.254 3.279.252 3.279.25 3.28.25 3.279.246 3.279.246 3.28.244 3.279.243 3.279.241 3.28.24 3.279.24 3.279.237 3.28.237 3.279.236 3.279.236 3.28.235 3.279.234 3.279.233 3.28.233 3.279.233 3.279.233 3.28.232 3.279.232 3.28.232 3.278.232 3.28.232 3.28.233 3.278.233 3.28.233 3.28.234 3.278.234 3.28.235 3.28.236 3.278.237 3.28.237 3.28.24 3.278.24 3.28.24 3.28.243 3.278.244 3.28.246 3.28.248 3.278.25 3.28.25 3.28.254 3.279.256 3.279.258 3.28.261 3.279.264 3.279.266 3.28.27 3.279.272 3.279.277 3.28.28 3.279.283 3.279.287 3.28.291 3.279.296 3.279.3 3.28.306 3.279.31 3.279.316 3.28.322" fill="none" stroke="#1f77b4" stroke-linecap="square" stroke-width="1.5" id="line2d_12"/><path clip-path="url(#pea8350bbbd)" d="M73.833 268.155l3.28-.71 3.278.218 3.28-.054 3.28-.547 3.278-.274 3.28-.328 3.28-.328 3.278-.328 3.28-.273 3.28-.492 3.278-.11 3.28-.437 3.28-1.312 3.278.984 3.28.055 3.28-1.859 3.278.547 3.28-1.203 3.28 1.312 3.279-.984 3.279.437 3.28-3.881 3.279 3.116 3.279-1.257 3.28 1.257 3.279-.93 3.279-.218 3.28-3.116 3.279 1.038 3.279-.273 3.28-.273 3.279-.547 3.279-.219 3.28-.93 3.279-.273 3.279-1.038 3.28.874 3.279-.765 3.279-2.46 3.28.054 3.279-.164 3.279.22 3.28-.876 3.279.656 3.279-.437 3.28-.93 3.279.165 3.279-.875 3.28-3.39 3.279 2.078 3.279.164 3.28-1.86 3.279 1.97 3.279-3.61 3.28 1.477 3.279-.437 3.279-1.695h3.28l3.279-3.445 3.28 1.86 3.278-1.477 3.28-1.039 3.28-.109 3.278-1.421 3.28-.602 3.28-.71 3.278-.329 3.28.274 3.28-3.007 3.278-1.039 3.28.055 3.28-1.148 3.278-1.586 3.28 3.007 3.28-3.827 3.278-1.75 3.28-4.1 3.28 1.258 3.278-2.023 3.28-1.64 3.28 1.421 3.279-4.866 3.279-3.663 3.28 2.515 3.279.492 3.279-3.335 3.28-2.733 3.279-3.39 3.279-4.702 3.28-3.335 3.279 3.991 3.279-7.654 3.28-12.246 3.279-2.078 3.279 8.42 3.28-23.564 3.279-8.146 3.279-1.312 3.28-104.533" fill="none" stroke="#ff7f0e" stroke-linecap="square" stroke-width="1.5" id="line2d_13"/><path d="M57.6 307.584V41.472" fill="none" stroke="#000" stroke-linecap="square" stroke-width=".8" id="patch_3"/><path d="M414.72 307.584V41.472" fill="none" stroke="#000" stroke-linecap="square" stroke-width=".8" id="patch_4"/><path d="M57.6 307.584h357.12" fill="none" stroke="#000" stroke-linecap="square" stroke-width=".8" id="patch_5"/><path d="M57.6 41.472h357.12" fill="none" stroke="#000" stroke-linecap="square" stroke-width=".8" id="patch_6"/><text x="236.16" y="35.472" font-family="DejaVu Sans" font-size="12" font-weight="400" text-anchor="middle" id="text_14">Coin Flips for 1 - log(1+x)</text><g id="legend_1"><path d="M64.6 78.828h248.831q2 0 2-2V48.472q0-2-2-2H64.6q-2 0-2 2v28.356q0 2 2 2z" fill="#fff" opacity=".8" stroke="#ccc" id="patch_7"/><path d="M66.6 54.57h20" fill="none" stroke="#1f77b4" stroke-linecap="square" stroke-width="1.5" id="line2d_14"/><text x="94.6" y="58.07" font-family="DejaVu Sans" font-size="10" font-weight="400" id="text_15">Coin Flip Lower Bound (Mendo)</text><path d="M66.6 69.249h20" fill="none" stroke="#ff7f0e" stroke-linecap="square" stroke-width="1.5" id="line2d_16"/><text x="94.6" y="72.749" font-family="DejaVu Sans" font-size="10" font-weight="400" id="text_16">Avg. Coins Flipped 1 - log(1+x) (Alt. Series)</text></g></g></g><defs><clipPath id="pea8350bbbd"><path d="M57.6 41.472h357.12v266.112H57.6z"/></clipPath></defs></svg>
